X: 26192
T: McMahon's Fancy
R: reel
M: 4/4
K: Dmajor
|:D2 (3FGA d4|DFAF GFEF|D2 (3FGA d2de|1 fedB AFEF:|2 fedB AFED||
|:B2BF A2AF|B2BF AFED|B2BF ABde|1 fedB AFED:|2 fedB AFEF||

